X: 22
T:Mrs Casy. JC.022
M:6/8
L:1/8
Q:100
S:John Clare,Poet,Helpston. (1793-1864)
R:Jig
O:England
A:Northamptonshire
N:
Z:vmp.P.hil Headford
K:D
f|d2B B>cB|A2A A>BA|B2B B>cB|(g3f2)e|!
d2B B>cB|A2A A>BA|B2B B>cB|(d3f2):|!
|:A|d2ef2g|a2ba2f|d2ef2g|a3-a2(g/a/)|!
b2ga2f|g2ef2e|d2B B>cB|(g3f2)f|!
d2B B>cB|A2A A>BA|B2B B>cB|(g3f2)f|!
d2B B>cB|A2A A>BA|B2B B>cB|d3f2:|]
